src/assets/icons/home/save.svg

<svg width="24" height="24" fill="none" xmlns="http://www.w3.org/2000/svg">
  <g clip-path="url(#a)" fill="#5655B9">
    <path
      d="M16.5 7H8.617C7.546 5.174 5.739 4.891 4.858 5.01l-1.14.163 1.028 3.529c-.771.633-1.407 1.411-1.874 2.298H0v7h2.866C4.079 20.303 6.395 21.793 9 21.966V24h2v-2h4v2h2v-2.025c3.902-.259 7-3.508 7-7.475 0-4.136-3.364-7.5-7.5-7.5Zm.5 6h-7v-2h7v2ZM13.5 5C14.8807 5 16 3.88071 16 2.5S14.8807 0 13.5 0 11 1.11929 11 2.5 12.1193 5 13.5 5Z" />
  </g>
  <defs>
    <clipPath id="a">
      <path fill="#fff" d="M0 0h24v24H0z" />
    </clipPath>
  </defs>
</svg>

<svg width="24" height="24" viewBox="0 0 24 24" fill="none" xmlns="http://www.w3.org/2000/svg">
<g clip-path="url(#clip0_188_23087)">
<path d="M16.5 7H8.617C7.546 5.174 5.739 4.891 4.858 5.01L3.718 5.173L4.746 8.702C3.975 9.335 3.339 10.113 2.872 11H0V18H2.866C4.079 20.303 6.395 21.793 9 21.966V24H11V22H15V24H17V21.975C20.902 21.716 24 18.467 24 14.5C24 10.364 20.636 7 16.5 7ZM17 13H10V11H17V13Z" fill="#5655B9"/>
<path d="M13.5 5C14.8807 5 16 3.88071 16 2.5C16 1.11929 14.8807 0 13.5 0C12.1193 0 11 1.11929 11 2.5C11 3.88071 12.1193 5 13.5 5Z" fill="#5655B9"/>
</g>
<defs>
<clipPath id="clip0_188_23087">
<rect width="24" height="24" fill="white"/>
</clipPath>
</defs>
</svg>
